X:271
T: Lord Belgonie's Favorite
N: O'Farrell's Pocket Companion v.3 (Sky ed. p.125)
N: "Scotch"
M: C
L: 1/8
R: blank
Q: 200
K: Dm
A| d2 d>e dc A2|f2 f>a gfe>c|d<d a2 dcAF| GG A^cd2D||
E| F2FA G>FEG| F>ED>FEA HA2|f2 fa g>feg| f2ed f/e/d/c/ Ad/e/||
fa/b/ c'/a/g/f/ ef g2|f>edf eaHa2|A2 BA/G/Adeg|
fe/d/ f/e/d/c/ Add||
